X:1
T:Title
%%score { ( 1 3 ) | ( 2 4 5 ) }
L:1/8
Q:1/4=100
M:4/4
K:Ab
V:1 treble nm="Grand Piano"
V:3 treble 
V:2 bass 
V:4 bass 
V:5 bass 
V:1
 [CA]2 [DA]2 [CA]3 [CG] | [DF]2 [DG]2 [_CF]2 [=CE]2 | [=DB]2 F2 G2 A2 | B6[K:bass] z2 | %4
w: Melvin~J.~Hill * * *||||
 [CA]2 [DA]2 [CA]3 [CG] | [DF]2 [DG]2 [_CF]2 [=CE]2 | G2 A2 B3 A | A6[K:bass] z2 | z .d3 z4 | %9
w: |||||
 z .B3 z4 | z .A3 z4 | c-[Ac-]c-[Ac-] c-[Ac] E,2 | z .d3 z4 | z .B3 z4 | .G2 CB c2 B2 | A6 z2 |] %16
w: |||||||
V:2
 [A,,A,]2 [A,,F,]2 [A,,E,]3 [A,,A,] | [A,,A,]2 [A,,A,]2 [A,,=D,]2 [A,,E,]2 | %2
 [B,,B,]2 [A,B,=D]2 [G,B,E]2 [F,B,D]2 | [G,DE]6 z2 | [A,,A,]2 [A,,F,]2 [A,,E,]3 [A,,A,] | %5
 [A,,A,]2 [A,,A,]2 [A,,=D,]2 [A,,E,]2 | [E,B,E]2 [E,CE]2 [E,DE]3 [A,CE] | [A,CE]6 z2 | z .F3 z4 | %9
 z .F3[K:bass] z4 | DCE,[E,G,D] [E,A,C]2 [E,G,D]2 | z E2 E- E z z2 | z .E3 z4 | z .F3[K:bass] z4 | %14
 DCE,[E,G,D] [A,E]2 [E,G,D]2 | E,4 z4 |] %16
V:3
 x8 | x8 | x8 | z2[K:bass] D,2 B,,2 E,2 | x8 | x8 | x8 | z2[K:bass] E,2 C,2 E,2 | %8
 .[Ec]2 A,[Ee] [Ec]2 B2 | .A2 A,c B2 F2 | .G2 CB A2 B2 | .E2 G,2 F,2 z2 | .[Ec]2 A,[Ee] [Ec]2 B2 | %13
 .A2 A,c B2 F2 | z .A3 z4 | C2- [CD]2 C2 z2 |] %16
V:4
 x8 | x8 | x8 | E,2 z2 z4 | x8 | x8 | x8 | x8 | z2 A,,[A,,A,] [A,,A,]2 [E,G,E]2 | %9
 .F2[K:bass] F,[F,A,F] [D,F,D]2 [D,B,D]2 | [E,B,]2 z2 z4 | z4 z E E,,2 | %12
 z2 A,,[A,,A,] [A,,A,]2 [E,G,E]2 | .F2[K:bass] F,[F,A,F] [D,F,D]2 [D,B,D]2 | [E,B,]2 z2 z4 | %15
 A,,2- [A,,-F,][A,,-=E,] [A,,_E,]2 z2 |] %16
V:5
 x8 | x8 | x8 | x8 | x8 | x8 | x8 | x8 | [A,,A,]2 z2 z4 | [F,C]2[K:bass] z2 z4 | x8 | %11
 [A,,A,]2 G,,2 F,,2 z2 | [A,,A,]2 z2 z4 | [F,C]2[K:bass] z2 z4 | x8 | x8 |] %16

